!!!COM: Paul Hindemith
!!!OTL: [T659_Hin-w70p91h17m14-21]
**kern	**dynam	**kern	**dynam	**kern	**dynam	**kern	**dynam	**kern	**dynam	**kern	**dynam	**kern	**dynam	**kern	**dynam	**kern	**dynam
*grp:A	*grp:A	*grp:A	*grp:A	*grp:A	*grp:A	*grp:A	*grp:A	*grp:B	*	*grp:A	*	*grp:A	*	*grp:A	*	*grp:C	*
*part9	*part9	*part8	*part8	*part7	*part7	*part6	*part6	*part5	*part5	*part4	*part4	*part3	*part3	*part2	*part2	*part1	*part1
*staff9	*	*staff8	*	*staff7	*	*staff6	*	*staff5	*	*staff4	*	*staff3	*	*staff2	*	*staff1	*
*I"Contrabass	*	*I"Violoncello	*	*I"Viola	*	*I"Violin 2	*	*I"Solo Violin	*	*I"Horn in F 1	*	*I"Clarinet in Bb 2	*	*I"Clarinet in Bb 1	*	*I"Oboe	*
*I'Cb.	*	*I'Vc.	*	*I'Vla.	*	*I'Vln. II	*	*I'Vln. I	*	*I'Hn.	*	*I'Cl.	*	*I'Cl.	*	*I'Ob.	*
*ICstr	*	*ICstr	*	*ICstr	*	*ICstr	*	*ICstr	*	*ICbras	*	*ICww	*	*ICww	*	*ICww	*
*Icbass	*	*Icello	*	*Iviola	*	*Ivioln	*	*Ivioln	*	*Icor	*	*Iclars	*	*Iclars	*	*Ioboe	*
*clefF4	*	*clefF4	*	*clefC3	*	*clefG2	*	*clefG2	*	*clefG2	*	*clefG2	*	*clefG2	*	*clefG2	*
*ITrd7c12	*	*	*	*	*	*	*	*	*	*ITrd4c7	*	*ITrd1c2	*	*ITrd1c2	*	*	*
*k[]	*	*k[]	*	*k[]	*	*k[]	*	*k[]	*	*k[b-]	*	*k[b-e-]	*	*k[b-e-]	*	*k[]	*
*	*	*	*	*	*	*	*	*	*	*	*	*	*	*	*	*	*
*M2/4	*	*M2/4	*	*M2/4	*	*M2/4	*	*M2/4	*	*M2/4	*	*M2/4	*	*M2/4	*	*M2/4	*
!!LO:REH:t=17
=1	=1	=1	=1	=1	=1	=1	=1	=1	=1	=1	=1	=1	=1	=1	=1	=1	=1
!LO:TX:a:t=pizz.	!	!LO:TX:a:t=pizz.	!	!	!	!	!	!	!	!	!	!	!	!	!	!LO:TX:t=[[quarter]=152]	!
8FF#X	pp	8FF#XL	pp	8r	.	8r	.	[2fff#X	mf	[2f#X	pp	4B-)j	p	4g-X)j	p	2r	.
!	!	!	!	!LO:TX:a:t=pizz.	!	!LO:TX:a:t=pizz.	!	!	!	!	!	!	!	!	!	!	!
8r	.	8F#XJ	.	8A#X	pp	8c#X	pp	.	.	.	.	.	.	.	.	.	.
8r	.	8r	.	4r	.	4r	.	.	.	.	.	4r	.	4r	.	.	.
8FF#	.	8FF#	.	.	.	.	.	.	.	.	.	.	.	.	.	.	.
=2	=2	=2	=2	=2	=2	=2	=2	=2	=2	=2	=2	=2	=2	=2	=2	=2	=2
4r	.	8EL	.	8BL	.	8dL	.	4fff#]	.	2f#_	.	2r	.	2r	.	2r	.
.	.	8EJ	.	8BJ	.	8dJ	.	.	.	.	.	.	.	.	.	.	.
8r	.	8r	.	4r	.	4r	.	((16fff#XLL	.	.	.	.	.	.	.	.	.
.	.	.	.	.	.	.	.	16ggg#X	.	.	.	.	.	.	.	.	.
8FF#X	.	8FF#X	.	.	.	.	.	16bbb	.	.	.	.	.	.	.	.	.
.	.	.	.	.	.	.	.	16ggg#JJ	.	.	.	.	.	.	.	.	.
=3	=3	=3	=3	=3	=3	=3	=3	=3	=3	=3	=3	=3	=3	=3	=3	=3	=3
4r	.	8D#X	.	8F#X	.	8B	.	8fff#XL)	.	2f#_	.	2r	.	2r	.	[2ff#X	p
.	.	8r	.	8r	.	8r	.	8ddd#X'	.	.	.	.	.	.	.	.	.
8FF#X	.	8FF#XL	.	8r	.	8r	.	8ccc#X'	.	.	.	.	.	.	.	.	.
8r	.	8EJ	.	8An	.	8e	.	8gg#X'J)	.	.	.	.	.	.	.	.	.
=4	=4	=4	=4	=4	=4	=4	=4	=4	=4	=4	=4	=4	=4	=4	=4	=4	=4
4r	.	8E	.	8A	.	8e	.	8ccc#XL	.	2f#_	.	2r	.	2r	.	4ff#]	.
.	.	8r	.	8r	.	8r	.	((16ccc#L	.	.	.	.	.	.	.	.	.
.	.	.	.	.	.	.	.	16gg#XJJ	.	.	.	.	.	.	.	.	.
8FF#X	.	8FF#XL	.	8r	.	8r	.	8ff#XL)	.	.	.	.	.	.	.	(16ff#XLL	.
.	.	.	.	.	.	.	.	.	.	.	.	.	.	.	.	16gg#X	.
8r	.	8F#XJ	.	8A#X	.	8c#X	.	8cc#X'J)	.	.	.	.	.	.	.	16bb	.
.	.	.	.	.	.	.	.	.	.	.	.	.	.	.	.	16gg#JJ	.
=5	=5	=5	=5	=5	=5	=5	=5	=5	=5	=5	=5	=5	=5	=5	=5	=5	=5
8r	.	8r	.	4r	.	4r	.	(8dd#XL	<	2f#_	.	2r	.	2r	.	8ff#XL)	.
8DD#X	.	8DD#X	.	.	.	.	.	8gg#XJ	.	.	.	.	.	.	.	8dd#X'	.
4r	.	8F#XL	.	8A#XL	.	8f#XL	.	[4aa#X)	.	.	.	.	.	.	.	8cc#X'	.
.	.	8E#XJ	.	8A#J	.	8e#XJ	.	.	.	.	.	.	.	.	.	8g#X'J	.
=6	=6	=6	=6	=6	=6	=6	=6	=6	=6	=6	=6	=6	=6	=6	=6	=6	=6
8r	.	8r	.	4r	.	4r	.	8aa#L]	.	2f#]	.	2r	.	2r	.	8cc#X'L	.
8GG#X	.	8GG#XL	.	.	.	.	.	(8aa#X	.	.	.	.	.	.	.	(16cc#L	.
.	.	.	.	.	.	.	.	.	.	.	.	.	.	.	.	16g#XJJ	.
4r	.	8D#XJ	.	8B	.	8d#X	.	8ccc#X	.	.	.	.	.	.	.	8f#XL)	.
.	.	8r	.	8r	.	8r	.	8aa#J)	[[	.	.	.	.	.	.	8c#X'J	.
=7	=7	=7	=7	=7	=7	=7	=7	=7	=7	=7	=7	=7	=7	=7	=7	=7	=7
8FF	.	8FFnL	.	8r	.	8r	.	(16aanLL	.	2r	.	2r	.	2r	.	(8d#XL	<
.	.	.	.	.	.	.	.	16ggnJ	.	.	.	.	.	.	.	.	.
8r	.	8Dn	.	8B-XL	.	8dnL	.	8eeJ)	.	.	.	.	.	.	.	8g#XJ	.
4r	.	8DJ	.	8B-J	.	8dJ	.	8r	.	.	.	.	.	.	.	[4a#X)	.
.	.	8r	.	8r	.	8r	.	8ccc	>	.	.	.	.	.	.	.	.
=8	=8	=8	=8	=8	=8	=8	=8	=8	=8	=8	=8	=8	=8	=8	=8	=8	=8
8EE-X	.	8EE-XL	.	8r	.	8r	.	(16bb-XLL	.	2r	.	2r	.	2r	.	8a#L]	.
.	.	.	.	.	.	.	.	16cccJ	.	.	.	.	.	.	.	.	.
8r	.	8A-XJ	.	8c	.	8d	.	8ccc#XJ)	.	.	.	.	.	.	.	(8a#X	.
8r	.	8r	.	4r	.	4r	.	8r	.	.	.	.	.	.	.	8cc#X	.
8DD	.	8DD	.	.	.	.	.	8ccc#	]]	.	.	.	.	.	.	8a#J)	[[
=	=	=	=	=	=	=	=	=	=	=	=	=	=	=	=	=	=
*-	*-	*-	*-	*-	*-	*-	*-	*-	*-	*-	*-	*-	*-	*-	*-	*-	*-
!!!system-decoration: [(s1[(s2,s3)])][(s4)]s5[(s6,s7,s8,s9)]
!!!Xfilter: slurcheck
!!!RDF**kern: j = marked note, color="magenta", text="extra)"
